src/assets/icons/ico-pen.svg

<svg width="24" height="24" viewBox="0 0 24 24" fill="none" xmlns="http://www.w3.org/2000/svg">
<g clip-path="url(#clip0_2330_1197)">
<path d="M4.91556 23.835L3.07217 14.3254C3.04156 14.1675 3.20041 14.0399 3.34801 14.1039L13.8524 18.6538C14.0035 18.7193 14.0152 18.9291 13.8723 19.0109L5.21129 23.9705C5.09233 24.0386 4.94165 23.9696 4.91556 23.835Z" fill="currentColor"/>
<path d="M4.73521 16.357L12.5742 19.7456C12.672 19.7876 12.7755 19.8084 12.8787 19.8084C13.0438 19.8084 13.2069 19.7555 13.3434 19.6524L14.0023 19.1527C14.3401 18.8964 14.4062 18.4151 14.15 18.0769C13.8938 17.7387 13.4116 17.6734 13.0742 17.9292L12.7722 18.158L4.35298 14.5187L4.62669 13.4636L13.4632 17.2831C13.8771 17.462 14.3139 17.5519 14.7524 17.5519C15.1605 17.5519 15.5691 17.4745 15.9609 17.3193C16.7734 16.9969 17.4103 16.3804 17.7552 15.5825L21.7754 6.90896C21.9434 6.51956 21.7645 6.0674 21.3752 5.8993C20.9862 5.73125 20.5336 5.91013 20.3655 6.29948L16.3454 14.973C16.1636 15.3944 15.8254 15.7206 15.3948 15.8911C14.9638 16.0617 14.4949 16.0559 14.0731 15.8736L5.15508 12.0189C4.9784 11.9424 4.82127 11.8395 4.68557 11.7173C4.6723 11.7041 4.65847 11.6915 4.64422 11.6792C4.13923 11.1935 3.96035 10.4267 4.25398 9.74667L8.27452 1.07281C8.44257 0.683407 8.26369 0.231194 7.87434 0.063144C7.48537 -0.104906 7.03236 0.0739724 6.86468 0.463324L2.84451 9.13761C2.3487 10.2837 2.56518 11.5615 3.29616 12.4751L2.70098 14.7696C2.60615 15.1365 2.79248 15.5172 3.13988 15.6673L3.32536 15.7476L4.73521 16.357Z" fill="currentColor"/>
</g>
<defs>
<clipPath id="clip0_2330_1197">
<rect width="24" height="24" fill="white"/>
</clipPath>
</defs>
</svg>

<svg width="24" height="24" fill="none" xmlns="http://www.w3.org/2000/svg"><g clip-path="url(#a)" fill="currentColor"><path d="m4.9156 23.835-1.8434-9.5096c-.0306-.1579.1282-.2855.2758-.2215l10.5044 4.5499c.1511.0655.1628.2753.0199.3571l-8.661 4.9596a.2.2 0 0 1-.2957-.1355Z"/><path d="m4.7352 16.357 7.839 3.3886a.7696.7696 0 0 0 .7692-.0932l.6589-.4997a.768.768 0 0 0-.9281-1.2235l-.302.2288-8.4192-3.6393.2737-1.0551 8.8365 3.8195a3.2425 3.2425 0 0 0 1.2892.2688 3.276 3.276 0 0 0 1.2085-.2326c.8125-.3224 1.4494-.9389 1.7943-1.7368l4.0202-8.6735c.168-.3894-.0109-.8416-.4002-1.0097-.389-.168-.8416.0108-1.0097.4002l-4.0201 8.6735c-.1818.4214-.52.7476-.9506.9181-.431.1706-.8999.1648-1.3217-.0175l-8.918-3.8547a1.724 1.724 0 0 1-.4695-.3016.795.795 0 0 0-.0414-.0381c-.505-.4857-.6838-1.2525-.3902-1.9325l4.0205-8.6739c.168-.3894-.0108-.8416-.4002-1.0097-.389-.168-.842.0109-1.0096.4002L2.8445 9.1376c-.4958 1.1461-.2793 2.4239.4517 3.3375l-.5952 2.2945a.7681.7681 0 0 0 .4389.8977l.1855.0803 1.4098.6094Z"/></g><defs><clipPath id="a"><path fill="#fff" d="M0 0h24v24H0z"/></clipPath></defs></svg>
